!!!OTL: Catherine virginis laudes
**kern
*staff1
=1-
*clefF3
*k[]
*M3/1
1.c
2B\
1A
=2
0G
1G
=3
0C
1D
=4
1E
1D
1G
=5
1C
0D
0G
!!linebreak:original
=6
1G
0F
1G
=7
1.A
2G\
1F
=8
1E
1D
1E
=9
0C
1D
=10
0AA
1E
=11
0D
1D
0C
=12
!!linebreak:original
1r
0C
1C
=13
0G
1A
=14
1G
1D
1G
=15
1C
0D
0GG
!!linebreak:original
=16
1C
0C
1C
=17
0F
1G
=18
1A
0G
=19
0C
1C
=20
0C
1G
=21
1A
0G
=22
0C
==
*-
!!title: @{OTL}, @{GTL}, ed. @{ENC}
!!!pag:
!!!GTL: Hymnbook D
!!!EFL: 
!!!YEM: Creative Commons CC/BY/NC/SA 4.0
!!!ENC: Marcin Konik
!!!END: 2015-0m-dd
!!!EED: Marcin Konik
!!!EEV: 
!!!ONB: Encoded in vim by Marcin Konik
!!!CharacterEncoding: utf-8
!!!RDF**kern: l=long note in original notation
!!!RDF**kern: i=editorial accidental
!!muse2ps: z14jc180F
!!!COM: Anonim
!!!CDT: [?]
!!!TXO: Polish
!!!ODT: 
!!!GTL: Hymnbook D
!!!ARL: Opactwo św. Wojciecha, Staniątki 
!!!voices:	1
